X: 38753
T: Stronsay Weaver, The
R: hornpipe
M: 4/4
K: Gmajor
|:(3DEF|G2BG DGB,D|G,B,DG BdcB|c2ec BcdB|cBAG FDEF|
G2BG DGB,D|G,B,DG BdcB|cAFA DFAc|1 B2G2G2(3DEF:|2 B2G2G2Bd||
|:g2dg Bdga|bagf gdBG|c2ec BcdB|cBAG FADf|
g2dg Bdga|bagf gdBG|c2ec BcdB|cAFA G2Bd|
g2dg Bdga|bagf gdBG|c2ec BcdB|cBAG FDEF|
G2BG DGB,D|G,B,DG BdcB|cAFA DFAc|B2G2 G4||

